contributed-vectors/grow.svg

<svg xmlns="http://www.w3.org/2000/svg" xml:space="preserve" style="fill-rule:evenodd;clip-rule:evenodd;stroke-linejoin:round;stroke-miterlimit:2" viewBox="0 0 192 192"><path d="M164.5 21.5c0-5.519-4.481-10-10-10h-133c-5.519 0-10 4.481-10 10v133c0 5.519 4.481 10 10 10h133c5.519 0 10-4.481 10-10v-133Z" style="fill:#fff" transform="translate(8 8)"/><path d="M77.746 39.812c14.015 7.56 23.43 21.549 23.43 37.543 0 15.993-9.415 29.983-23.43 37.543V39.812Z" style="fill:#e0f4e0" transform="rotate(-45 95.956 95.915)"/><path d="M77.746 39.812c14.015 7.56 23.43 21.549 23.43 37.543 0 15.993-9.415 29.983-23.43 37.543V39.812Z" style="fill:#98dc9a" transform="scale(-1 1) rotate(45 -18.21 -91.78)"/><path d="M77.746 39.812c14.015 7.56 23.43 21.549 23.43 37.543 0 15.993-9.415 29.983-23.43 37.543V39.812Z" style="fill:#71a372" transform="rotate(45 92.69 128.525) scale(1.1297)"/><path d="M77.746 39.812c14.015 7.56 23.43 21.549 23.43 37.543 0 15.993-9.415 29.983-23.43 37.543V39.812Z" style="fill:#98dc9a" transform="scale(-1.1297 1.1297) rotate(-45 -4.302 301.465)"/></svg>

<?xml version="1.0" encoding="UTF-8" standalone="no"?>
<!DOCTYPE svg PUBLIC "-//W3C//DTD SVG 1.1//EN" "http://www.w3.org/Graphics/SVG/1.1/DTD/svg11.dtd">
<svg width="100%" height="100%" viewBox="0 0 192 192" version="1.1" xmlns="http://www.w3.org/2000/svg" xmlns:xlink="http://www.w3.org/1999/xlink" xml:space="preserve" xmlns:serif="http://www.serif.com/" style="fill-rule:evenodd;clip-rule:evenodd;stroke-linejoin:round;stroke-miterlimit:2;">
    <g id="Layer1">
        <g transform="matrix(1,0,0,1,8,8)">
            <path d="M164.5,21.5C164.5,15.981 160.019,11.5 154.5,11.5L21.5,11.5C15.981,11.5 11.5,15.981 11.5,21.5L11.5,154.5C11.5,160.019 15.981,164.5 21.5,164.5L154.5,164.5C160.019,164.5 164.5,160.019 164.5,154.5L164.5,21.5Z" style="fill:white;"/>
        </g>
        <g transform="matrix(0.707107,-0.707107,0.707107,0.707107,-39.7172,95.9441)">
            <g>
                <path d="M77.746,39.812C91.761,47.372 101.176,61.361 101.176,77.355C101.176,93.348 91.761,107.338 77.746,114.898L77.746,39.812Z" style="fill:rgb(224,244,224);"/>
                <g transform="matrix(-1,0,0,1,155.492,0)">
                    <path d="M77.746,39.812C91.761,47.372 101.176,61.361 101.176,77.355C101.176,93.348 91.761,107.338 77.746,114.898L77.746,39.812Z" style="fill:rgb(152,220,154);"/>
                </g>
            </g>
            <g>
                <g transform="matrix(6.91744e-17,1.1297,-1.1297,6.91744e-17,199.113,23.9745)">
                    <path d="M77.746,39.812C91.761,47.372 101.176,61.361 101.176,77.355C101.176,93.348 91.761,107.338 77.746,114.898L77.746,39.812Z" style="fill:rgb(113,163,114);"/>
                </g>
                <g transform="matrix(-6.91744e-17,-1.1297,-1.1297,6.91744e-17,199.113,199.634)">
                    <path d="M77.746,39.812C91.761,47.372 101.176,61.361 101.176,77.355C101.176,93.348 91.761,107.338 77.746,114.898L77.746,39.812Z" style="fill:rgb(152,220,154);"/>
                </g>
            </g>
        </g>
    </g>
</svg>
